X:1
T:Scarborough Fair
M:3/4
L:1/4
K:Dm
"Dm"D2 D|"Am"A2 A|"Dm"E F E|"Dm"D3|
"Am"A2 d|"G"c A B|"Am"A3|
"Am"A d2|"C"c A A|"G"G F G|"Am"A3|
"Dm"D F2|"C"E C E|"Dm"D3|"Dm"D3|
